src/assets/img/icons/dark/icon-dollar.svg

<svg width="24" height="24" viewBox="0 0 24 24" fill="none" xmlns="http://www.w3.org/2000/svg">
<path d="M12 24C8.79469 24 5.78119 22.7518 3.51469 20.4853C1.24819 18.2188 0 15.2053 0 12C0 8.79469 1.24823 5.78123 3.51469 3.51469C5.78114 1.24814 8.79469 0 12 0C15.2053 0 18.2188 1.24819 20.4853 3.51469C22.7518 5.78119 24 8.79469 24 12C24 15.2053 22.7518 18.2188 20.4853 20.4853C18.2189 22.7519 15.2053 24 12 24ZM12 1.5C6.21028 1.5 1.5 6.21028 1.5 12C1.5 17.7897 6.21028 22.5 12 22.5C17.7897 22.5 22.5 17.7897 22.5 12C22.5 6.21028 17.7897 1.5 12 1.5Z" fill="#61C2A8"/>
<path d="M12 11.25C10.9661 11.25 10.125 10.4089 10.125 9.375C10.125 8.34113 10.9661 7.5 12 7.5C13.0339 7.5 13.875 8.34113 13.875 9.375C13.875 9.78919 14.2108 10.125 14.625 10.125C15.0392 10.125 15.375 9.78919 15.375 9.375C15.375 7.77183 14.251 6.42712 12.75 6.08503V5.25C12.75 4.83581 12.4142 4.5 12 4.5C11.5858 4.5 11.25 4.83581 11.25 5.25V6.08503C9.74897 6.42712 8.625 7.77183 8.625 9.375C8.625 11.236 10.139 12.75 12 12.75C13.0339 12.75 13.875 13.5911 13.875 14.625C13.875 15.6589 13.0339 16.5 12 16.5C10.9661 16.5 10.125 15.6589 10.125 14.625C10.125 14.2108 9.78923 13.875 9.375 13.875C8.96077 13.875 8.625 14.2108 8.625 14.625C8.625 16.2282 9.74897 17.5729 11.25 17.915V18.75C11.25 19.1642 11.5858 19.5 12 19.5C12.4142 19.5 12.75 19.1642 12.75 18.75V17.915C14.251 17.5729 15.375 16.2282 15.375 14.625C15.375 12.764 13.861 11.25 12 11.25Z" fill="#61C2A8"/>
</svg>

<svg xmlns="http://www.w3.org/2000/svg" width="24" height="24" fill="none"><path fill="#61C2A8" d="M12 24c-3.2 0-6.22-1.25-8.49-3.51A11.92 11.92 0 010 12c0-3.2 1.25-6.22 3.51-8.49A11.92 11.92 0 0112 0c3.2 0 6.22 1.25 8.49 3.51A11.92 11.92 0 0124 12c0 3.2-1.25 6.22-3.51 8.49A11.92 11.92 0 0112 24zm0-22.5a10.51 10.51 0 000 21 10.51 10.51 0 000-21z"/><path fill="#61C2A8" d="M12 11.25a1.88 1.88 0 111.88-1.88.75.75 0 001.5 0c0-1.6-1.13-2.94-2.63-3.28v-.84a.75.75 0 00-1.5 0v.84a3.38 3.38 0 00.75 6.66 1.88 1.88 0 11-1.88 1.88.75.75 0 10-1.5 0c0 1.6 1.13 2.94 2.63 3.28v.84a.75.75 0 001.5 0v-.84a3.38 3.38 0 00-.75-6.66z"/></svg>
